StripePaymentSheet/StripePaymentSheet/Resources/StripePaymentSheet.xcassets/Link/InstantDebitIcons/bank_icon_capitalone.imageset/BrandIcon--capitalone.svg

<svg viewBox="0 0 32 32" xmlns="http://www.w3.org/2000/svg"><g fill="none"><path d="m0 0h32v32h-32z" fill="#037fb0"/><path d="m16.355 21.203c5.674-6.52 6.334-9.59 5.69-10.63-2.115-3.417-11.94-1.516-16.665-.146l-.131.043c-.028.007-.054-.022-.06-.067-.004-.045.015-.088.042-.095l.133-.047c3.84-1.368 11.176-3.342 16.194-3.342 2.434 0 4.323.465 5.003 1.688.929 1.669-.905 4.465-3.825 7.63l-.128.108.133-.103c-1.652 1.48-7.959 7.56-9.388 8.776l-.056.048c-.023.026-.054.017-.07-.02s-.01-.088.012-.114l.067-.063 3.045-3.663z" fill="#fff"/></g></svg>

<?xml version="1.0" encoding="UTF-8"?>
<svg viewBox="0 0 32 32" version="1.1" xmlns="http://www.w3.org/2000/svg" xmlns:xlink="http://www.w3.org/1999/xlink">
    <!-- Generator: Sketch 57.1 (83088) - https://sketch.com -->
    <title>BrandIcon--capitalone</title>
    <desc>Created with Sketch.</desc>
    <g id="Page-1" stroke="none" stroke-width="1" fill="none" fill-rule="evenodd">
        <g id="BrandIcon--capitalone" fill-rule="nonzero">
            <polygon id="Container" fill="#037FB0" points="0 0 32 0 32 32 0 32"></polygon>
            <path d="M16.355,21.203 C22.029,14.683 22.689,11.613 22.045,10.573 C19.93,7.156 10.105,9.057 5.38,10.427 L5.249,10.47 C5.221,10.477 5.195,10.448 5.189,10.403 C5.185,10.358 5.204,10.315 5.231,10.308 L5.364,10.261 C9.204,8.893 16.54,6.919 21.558,6.919 C23.992,6.919 25.881,7.384 26.561,8.607 C27.49,10.276 25.656,13.072 22.736,16.237 L22.608,16.345 L22.741,16.242 C21.089,17.722 14.782,23.802 13.353,25.018 L13.297,25.066 C13.274,25.092 13.243,25.083 13.227,25.046 C13.211,25.009 13.217,24.958 13.239,24.932 L13.306,24.869 L16.351,21.206 L16.355,21.203 L16.355,21.203 Z" id="path-1" fill="#FFFFFF"></path>
        </g>
    </g>
</svg>
